X: 2096
T: Çemberim de Gül Oya
C: Kâmil Nizam Bigalı
O: Turkey
F: http://compmusic.upf.edu/node/140
N: segah--turku--aksak--cemberim_de--biga
N: makam= segah
N: form= turku
N: usul= aksak = 9/8
M: 9/8
L: 1/16
K: C _1/4B _1/4e ^f 
Q: 1/4=156
%%MIDI tuningsystem comma53
d2d2 g2g2 f2e2 gfg4 | f2 f2e2 d2f2 f2fg e2d2  | \
w:  ARANAĞME  |   | 
e4 e2g2 f2e2 d2c2 cB | 
w:   | 
B8c2 d2e6  | d2d2 g2g2 f2e2 gfg4 | f2 f2e2 d2f2 f2fg e2d2  | 
w:   |  ARANAĞME  |   | 
e4 e2g2 f2e2 d2c2 cB | B12z4z2  | B2B2 c2de dccB B4 z2 | 
w:   |   |  Çem be rim  de  *  gül_ *  o *  ya    | 
g3gg2 g2f4fg e2d2  | d16 z2 | B2 B2c2 dedc cBB4z2  | 
w:  Gül me dim  do ya  do  |  ya    |  Çem be rim  de  *  gül_ *  o *  ya    | 
g3g g2g2 f4 fge2 d2 | d16z2  | d2d2 g2g2 f2e2 gfg4 | \
w:  Gül me dim  do ya  do  |  ya    |  Dert le re  ka rı yo rum    | 
f2 f2e2 d2f2 f2fg e2d2  | 
w:  Gün le ri  sa ya  sa ya    | 
e4 e2g2 f2e2 d2c2 cB | B8c2 d2e6  | d2d2 g2g2 f2e2 gfg4 | 
w:  Al  be ni  kı ya mam  *  se  |  ni   SAZ  |  Dert le re  ka rı yo rum    | 
f2 f2e2 d2f2 f2fg e2d2  | e4 e2g2 f2e2 d2c2 cB | \
w:  Gün le ri  sa ya  sa ya    |  Al  be ni  kı ya mam  *  se  | 
d2 d2g2 g2f2 e2gf g4  | 
w:  Dert le re  ka rı yo rum    | 
f2f2 e2d2 f2f2 fge2 d2 | e4e2 g2f2 e2d2 c2cB  | \
w:  Gün le ri  sa ya  sa ya    |  Al  be ni  kı ya mam  *  se  | 
B12 z4 z2 | 
w:  ni    | 
d2 d2g2 g2f2 e2gf g4  | f2f2 e2d2 f2f2 fge2 d2 | \
w:  ARANAĞME  |   | 
e4e2 g2f2 e2d2 c2cB  | 
w:   | 
B8 c2d2 e6 | d2 d2g2 g2f2 e2gf g4  | \
w:   |  ARANAĞME  | 
f2f2 e2d2 f2f2 fge2 d2 | 
w:   | 
e4e2 g2f2 e2d2 c2cB  | B12 z4 z2 | B2 B2c2 dedc cBB4z2  | 
w:   |   |  Çem be rim  de  *  gül_ *  o *  ya    | 
g3g g2g2 f4 fge2 d2 | d16z2  | B2B2 c2de dccB B4 z2 | 
w:  Gül me dim  do ya  do  |  ya    |  Çem be rim  de  *  gül_ *  o *  ya    | 
g3gg2 g2f4fg e2d2  | d16 z2 | d2 d2g2 g2f2 e2gf g4  | \
w:  Gül me dim  do ya  do  |  ya    |  Dert le re  ka rı yo rum    | 
f2f2 e2d2 f2f2 fge2 d2 | 
w:  Gün le ri  sa ya  sa ya    | 
e4e2 g2f2 e2d2 c2cB  | B8 c2d2 e6 | d2 d2g2 g2f2 e2gf g4  | 
w:  Al  be ni  kı ya mam  *  se  |  ni   SAZ  |  Dert le re  ka rı yo rum    | 
f2f2 e2d2 f2f2 fge2 d2 | e4e2 g2f2 e2d2 c2cB  | \
w:  Gün le ri  sa ya  sa ya    |  Al  be ni  kı ya mam  *  se  | 
d2d2 g2g2 f2e2 gfg4 | 
w:  Dert le re  ka rı yo rum    | 
f2 f2e2 d2f2 f2fg e2d2  | e4 e2g2 f2e2 d2c2 cB | \
w:  Gün le ri  sa ya  sa ya    |  Al  be ni  kı ya mam  *  se  | 
B12z4z2  | 
w:  ni    | 
|


